X: 1
T: Biddy Barry's
M: 4/4
L: 1/8
R: barndance
K: Gmaj
|: D>F | 
G>B D2 G>B D2 | G2 B2 B2 A>G | F>A D2 F>AD>F | A2 c2 (3cdc B>A |
G>B D2 G>B (3DEF | G2 B2 B2 (3GAB | c>BA>G F>dA>d | G2 G>F G2 :|
|: B>c | 
d2 g2 g2 f>e | d2 B2 B2 A>B | c2 e2 (3efe d>c | B2 G2 G>AB>c |
d2 g>f g2 (3gfe | d2 B>^A B2 =A>B | c2 (3BAG F>dA>F | G2 G2 G2 :|
